public/svg/instagram.svg

<svg height="28" viewBox="0 0 28 28" width="28" xmlns="http://www.w3.org/2000/svg" xmlns:xlink="http://www.w3.org/1999/xlink"><linearGradient id="a" x1="50%" x2="50%" y1="0%" y2="100%"><stop offset="0" stop-color="#4ebbed"/><stop offset="1" stop-color="#5c6ddd"/></linearGradient><g fill="url(#a)"><path d="m20.4206543 0h-12.8413086c-4.17932129 0-7.5793457 3.40002441-7.5793457 7.5793457v12.8415222c0 4.1791077 3.40002441 7.5791321 7.5793457 7.5791321h12.8415222c4.1791077 0 7.5791321-3.4000244 7.5791321-7.5791321v-12.8415222c0-4.17932129-3.4000244-7.5793457-7.5793457-7.5793457zm5.9378662 20.4208679c0 3.2739868-2.6636658 5.9376526-5.9378662 5.9376526h-12.8413086c-3.27420045 0-5.93786621-2.6636658-5.93786621-5.9376526v-12.8415222c0-3.27420045 2.66366576-5.93786621 5.93786621-5.93786621h12.8415222c3.2739869 0 5.9376526 2.66366576 5.9376526 5.93786621z"/><path d="m13.5 7c-4.13557853 0-7.5 3.3644215-7.5 7.5s3.36442147 7.5 7.5 7.5c4.1355785 0 7.5-3.3644215 7.5-7.5s-3.3644215-7.5-7.5-7.5zm0 13.3919752c-3.2486955 0-5.89197523-2.6430704-5.89197523-5.8919752 0-3.2486955 2.64327973-5.89197523 5.89197523-5.89197523 3.2489048 0 5.8919752 2.64327973 5.8919752 5.89197523 0 3.2489048-2.6430704 5.8919752-5.8919752 5.8919752z"/><path d="m21.9999056 4c-1.1028752 0-1.9999056.89721921-1.9999056 1.99990558 0 1.10287521.8970304 2.00009442 1.9999056 2.00009442s2.0000944-.89721921 2.0000944-2.00009442-.8972192-1.99990558-2.0000944-1.99990558zm0 2.54869928c-.3025353 0-.5487937-.24625843-.5487937-.5487937 0-.30272415.2462584-.54879375.5487937-.54879375.3027241 0 .5489826.2460696.5489826.54879375 0 .30253527-.2462585.5487937-.5489826.5487937z"/></g></svg>

<?xml version="1.0" encoding="UTF-8"?>
<svg width="28px" height="28px" viewBox="0 0 28 28" version="1.1" xmlns="http://www.w3.org/2000/svg" xmlns:xlink="http://www.w3.org/1999/xlink">
    <title>instagram</title>
    <defs>
        <linearGradient x1="50%" y1="0%" x2="50%" y2="100%" id="linearGradient-1">
            <stop stop-color="#4EBBED" offset="0%"></stop>
            <stop stop-color="#5C6DDD" offset="100%"></stop>
        </linearGradient>
    </defs>
    <g id="Page-1" stroke="none" stroke-width="1" fill="none" fill-rule="evenodd">
        <g id="workers-personnal-desktop" transform="translate(-637.000000, -944.000000)" fill="url(#linearGradient-1)" fill-rule="nonzero">
            <g id="instagram" transform="translate(637.000000, 944.000000)">
                <path d="M20.4206543,0 L7.5793457,0 C3.40002441,0 0,3.40002441 0,7.5793457 L0,20.4208679 C0,24.5999756 3.40002441,28 7.5793457,28 L20.4208679,28 C24.5999756,28 28,24.5999756 28,20.4208679 L28,7.5793457 C28,3.40002441 24.5999756,0 20.4206543,0 Z M26.3585205,20.4208679 C26.3585205,23.6948547 23.6948547,26.3585205 20.4206543,26.3585205 L7.5793457,26.3585205 C4.30514525,26.3585205 1.64147949,23.6948547 1.64147949,20.4208679 L1.64147949,7.5793457 C1.64147949,4.30514525 4.30514525,1.64147949 7.5793457,1.64147949 L20.4208679,1.64147949 C23.6948548,1.64147949 26.3585205,4.30514525 26.3585205,7.5793457 L26.3585205,20.4208679 Z" id="Shape"></path>
                <path d="M13.5,7 C9.36442147,7 6,10.3644215 6,14.5 C6,18.6355785 9.36442147,22 13.5,22 C17.6355785,22 21,18.6355785 21,14.5 C21,10.3644215 17.6355785,7 13.5,7 Z M13.5,20.3919752 C10.2513045,20.3919752 7.60802477,17.7489048 7.60802477,14.5 C7.60802477,11.2513045 10.2513045,8.60802477 13.5,8.60802477 C16.7489048,8.60802477 19.3919752,11.2513045 19.3919752,14.5 C19.3919752,17.7489048 16.7489048,20.3919752 13.5,20.3919752 Z" id="Shape"></path>
                <path d="M21.9999056,4 C20.8970304,4 20,4.89721921 20,5.99990558 C20,7.10278079 20.8970304,8 21.9999056,8 C23.1027808,8 24,7.10278079 24,5.99990558 C24,4.89703037 23.1027808,4 21.9999056,4 Z M21.9999056,6.54869928 C21.6973703,6.54869928 21.4511119,6.30244085 21.4511119,5.99990558 C21.4511119,5.69718143 21.6973703,5.45111183 21.9999056,5.45111183 C22.3026297,5.45111183 22.5488882,5.69718143 22.5488882,5.99990558 C22.5488882,6.30244085 22.3026297,6.54869928 21.9999056,6.54869928 Z" id="Shape"></path>
            </g>
        </g>
    </g>
</svg>
